Sources/FrostedUI/Resources/Icons.xcassets/downloadDocumentFilled32.imageset/download-document-filled-32.svg

<svg width="32" height="32" viewBox="0 0 32 32" fill="none" xmlns="http://www.w3.org/2000/svg" data-fui-icon="true">
  <path
    d="M15.8958 2.91663C16.4686 2.91669 17.0267 3.06087 17.5217 3.32874C17.6138 3.37859 17.7038 3.43254 17.7913 3.49084C17.8579 3.53524 17.922 3.58328 17.9856 3.63245C18.0549 3.68609 18.1234 3.74124 18.1887 3.80042C18.2306 3.83834 18.2716 3.87745 18.3118 3.9176L25.4163 11.0221C25.4962 11.102 25.5718 11.1854 25.6428 11.2721C25.7142 11.3592 25.7809 11.4495 25.843 11.5426C25.9048 11.6353 25.9617 11.7308 26.0139 11.8287C26.2759 12.3195 26.4163 12.8717 26.4163 13.4381V25.6666C26.4163 25.7256 26.4153 25.7842 26.4124 25.8424C26.3239 27.5894 24.923 28.99 23.176 29.0787C23.1178 29.0817 23.0592 29.0836 23.0002 29.0836H9.00024C7.11328 29.0836 5.58325 27.5536 5.58325 25.6666V6.33362C5.58325 5.92088 5.65616 5.52512 5.79028 5.15881C5.86702 4.94916 5.96402 4.74927 6.07837 4.56116C6.13539 4.46737 6.19645 4.37628 6.26196 4.2887C6.45864 4.02574 6.69237 3.79202 6.95532 3.59534C7.0429 3.52982 7.13399 3.46876 7.22778 3.41174C7.4159 3.29739 7.61579 3.2004 7.82544 3.12366C7.98245 3.06617 8.14494 3.0201 8.31177 2.98596C8.47856 2.95185 8.64979 2.93035 8.82446 2.92151C8.88269 2.91856 8.94128 2.91663 9.00024 2.91663H15.8958ZM16.3127 14.7496C15.8986 14.7496 15.5629 15.0856 15.5627 15.4996V21.5016L14.5305 20.4694C14.2377 20.1766 13.7629 20.1768 13.47 20.4694C13.1771 20.7622 13.1771 21.237 13.47 21.5299L15.3586 23.4196C15.8467 23.9076 16.6381 23.9075 17.1262 23.4196L19.1868 21.359C19.4797 21.0661 19.4796 20.5914 19.1868 20.2985C18.8939 20.0056 18.4191 20.0056 18.1262 20.2985L17.0627 21.3619V15.4996C17.0626 15.0857 16.7267 14.7498 16.3127 14.7496ZM17.7502 9.66663C17.7502 10.1297 17.9144 10.5541 18.1877 10.8854C18.4221 11.1696 18.7367 11.3846 19.0969 11.4967C19.217 11.534 19.342 11.5608 19.4709 11.5739C19.5352 11.5804 19.6003 11.5836 19.6663 11.5836H23.8557L17.7502 5.47815V9.66663Z"
    fill="currentColor"
  />
</svg>

<svg xmlns="http://www.w3.org/2000/svg" width="32" height="32" fill="none" data-fui-icon="true" viewBox="0 0 32 32"><path fill="currentColor" d="M15.896 2.917a3.42 3.42 0 0 1 2.416 1l7.104 7.105a3.4 3.4 0 0 1 .598.807c.262.49.402 1.043.402 1.61v12.228q.001.088-.004.175A3.417 3.417 0 0 1 23 29.084H9a3.417 3.417 0 0 1-3.417-3.417V6.334A3.41 3.41 0 0 1 9 2.917zm.417 11.833a.75.75 0 0 0-.75.75v6.002l-1.033-1.033a.75.75 0 0 0-1.06 1.06l1.889 1.89a1.25 1.25 0 0 0 1.767 0l2.06-2.06a.75.75 0 1 0-1.06-1.06l-1.063 1.063V15.5a.75.75 0 0 0-.75-.75m1.437-5.083a1.918 1.918 0 0 0 1.916 1.917h4.19L17.75 5.478z"/></svg>
